X:1
T:Title
%%score { ( 1 3 ) | ( 2 4 ) }
L:1/8
M:6/8
K:Bb
V:1 treble nm="Grand Piano"
V:3 treble 
V:2 bass 
V:4 bass 
V:1
 z3 z2[Q:1/4=84] [DF] | [DF][DF][DF] GFE | D [DF]2- [DF]2 [DB] | BBB [=Ec][EB][EG] | %4
[M:5/8] A-A- A3 |[M:1/8] F |[M:3/4] dd d[Fd] [Fc][_AB] | [Gc]G- G3 G | FA ce dc | %9
[M:5/8] [DB]-[DB]- [DB]3 |[M:1/8] F |[M:3/4] cc cc GA | [B,DFB]4- [B,DFB]B | BB BB AG | %14
[M:5/8] c-c- c3 |[M:1/8] e |[M:3/4] dd dd cB | [Ge]3 G2 G | FA ce dc |[M:5/8] [DB]-[DB]- [DB]3 |] %20
V:2
 z3 z2 [B,,B,] | [B,,B,][B,,B,][B,,B,] [F,A,E][F,B,D][F,C] | %2
 [B,,F,B,] [B,,B,]2- [B,,B,]2 [B,,_A,] | [E,G,E][E,G,E][E,G,E] [C,G,][C,G,][C,C] | %4
[M:5/8][K:treble] [F,CF]-[F,CF]- [F,CF]3 |[M:1/8] [A,C] | %6
[M:3/4] [B,F][B,F] [B,F][K:bass][B,,B,] [C,B,][D,B,] | [E,B,][E,B,E]- [E,B,E]3 [E,B,E] | %8
 [F,B,D][F,CF] [F,A,F][F,CF] [F,B,F][F,A,E] |[M:5/8] [B,,B,]-[B,,B,]- [B,,B,]3 | %10
[M:1/8][K:treble] [B,D] |[M:3/4] [F,A,F][A,EF] [CEF][F,EF][K:bass] [F,EF][F,EF] | %12
 B,,D, .F,2 z [_A,B,D] | [G,B,D][G,B,D] [G,B,D][G,B,D] [^F,CD][G,B,D] | %14
[M:5/8] [F,A,E]-[F,A,E]- [F,A,E]3 |[M:1/8][K:treble] [A,CF] | %16
[M:3/4] [B,F][B,F] [B,F][B,F] [A,EF][B,D_A] | [E,E]3 [E,B,E]2 [E,B,E] | %18
 [F,B,D][F,CF] [F,A,F][F,CF] [F,B,F][F,A,E] |[M:5/8] [B,,B,]-[B,,B,]- [B,,B,]3 |] %20
V:3
 x6 | x6 | x6 | x6 |[M:5/8] x5 |[M:1/8] x |[M:3/4] x6 | x6 | x6 |[M:5/8] x5 |[M:1/8] x | %11
[M:3/4] x6 | x6 | x6 |[M:5/8] z A,,C, z2 |[M:1/8] x |[M:3/4] x6 | x6 | x6 |[M:5/8] x5 |] %20
V:4
 x6 | x6 | x6 | x6 |[M:5/8][K:treble] x5 |[M:1/8] x |[M:3/4] x3[K:bass] x3 | x6 | x6 |[M:5/8] x5 | %10
[M:1/8][K:treble] x |[M:3/4] x4[K:bass] x2 | x6 | x6 |[M:5/8] F,, z z z2 |[M:1/8][K:treble] x | %16
[M:3/4] x6 | x6 | x6 |[M:5/8] x5 |] %20

